X:1
T:Ferrin, 87.87 D
T:Ferrin, 87.87 D
T:James Ramsey Murray, 1891
T:Public Domain Courtesy of the Cyber Hymnal™
C:James Ramsey Murray, 1891
Z:Public Domain
Z:Courtesy of the Cyber Hymnal™
%%score ( 1 2 ) 3
L:1/8
Q:1/4=95
M:3/4
K:G
V:1 treble 
V:2 treble 
V:3 bass 
V:1
 D[DG] | [GB]3 [GB] [Ac][GB] | [GB]2 [FA]2 D[DF] | [DA]3 [DG] [GB][FA] | G4 D[DG] | %5
 [GB]3 [GB] [Ac][GB] | [GB]2 [GA]2 [GA][GA] | [FA]3 G [GB][FA] | G4 [Gd][Gd] | %9
 [Fd]3 [FA] [GB][Ac] | [Ac]2 [GB]2 [GB][GB] | [GA]3 [GB] [G^c][Ge] | [Fd]4 D[DG] | %13
 [GB]3 G [GB][=Fd] | [Ed]2 [Ec]2 E[EA] | [DG]3 [DF] [FB][FA] | G4 |] %17
V:2
 D x | x6 | x4 D x | x6 | G4 D x | x6 | x6 | x3 G x2 | G4 x2 | x6 | x6 | x6 | x4 D x | x3 G x2 | %14
 x4 E x | x6 | G4 |] %17
V:3
 [G,B,][G,B,] | [G,D]3 [G,D] [F,D][G,D] | [D,D]2 [D,C]2 [D,C][D,C] | [D,C]3 [D,B,] [D,D][D,C] | %4
 [G,B,]4 [G,B,][G,B,] | [G,D]3 [G,D] [F,D][G,D] | [A,^C]2 [A,C]2 [A,C][A,C] | %7
 [D,C]3 [D,B,] [D,D][D,C] | [G,B,]4 [G,B,][G,B,] | [D,A,]3 [D,D] [D,D][D,D] | %10
 [G,D]2 [G,D]2 [G,D][G,D] | [A,^C]3 [A,D] [A,E][A,C] | [D,D]4 [G,B,][G,B,] | %13
 [G,D]3 [G,B,] [G,D][^G,B,] | [A,C]2 [A,C]2 [C,C][C,C] | [D,B,]3 [D,A,] [D,D][D,C] | [G,B,]4 |] %17

